src/assets/selectIcons/anello_1.svg

<svg xmlns="http://www.w3.org/2000/svg" viewBox="0 0 512 512"><path d="M0 0h512v512H0z"/><path fill="#fff" d="M255.157 123c-68.66 0-137.1 18.922-182.867 55.275.234 14.35 1.818 35.624 9.332 48.23 110.634-60.336 236.436-60.336 347.07 0 7.513-12.606 9.098-33.88 9.332-48.23C392.257 141.922 323.817 123 255.157 123zm199.81 76.057c-.324 2.98-.718 6.02-1.246 9.082-2.226 12.93-6.213 26.458-15.99 35.98-14.436 18.637-40.806 30.462-72.858 38.603C332.392 290.973 293.79 295 255.157 295c-38.632 0-77.235-4.028-109.715-12.277-31.907-8.104-58.17-19.868-72.648-38.36-11.983-11.982-16.234-28.786-17.77-43.857-13.73 27.256-11.503 62.122.672 98.648C69.988 342.03 129.406 389 255.156 389c125.75 0 185.17-46.97 199.462-89.846l.1-.297.12-.287c15.134-36.712 15.61-71.983.13-99.513z"/></svg>

<?xml version="1.0" encoding="UTF-8" standalone="no"?>
<!DOCTYPE svg PUBLIC "-//W3C//DTD SVG 1.1//EN" "http://www.w3.org/Graphics/SVG/1.1/DTD/svg11.dtd">
<svg width="100%" height="100%" viewBox="0 0 512 512" version="1.1" xmlns="http://www.w3.org/2000/svg" xmlns:xlink="http://www.w3.org/1999/xlink" xml:space="preserve" xmlns:serif="http://www.serif.com/" style="fill-rule:evenodd;clip-rule:evenodd;stroke-linejoin:round;stroke-miterlimit:2;">
    <rect x="0" y="0" width="512" height="512" style="fill-rule:nonzero;"/>
    <path d="M454.967,199.057C454.643,202.037 454.249,205.077 453.721,208.139C451.495,221.069 447.508,234.597 437.731,244.119C423.295,262.756 396.925,274.581 364.873,282.722C332.392,290.973 293.79,295 255.157,295C216.525,295 177.922,290.972 145.442,282.723C113.535,274.619 87.272,262.855 72.794,244.363C60.811,232.381 56.56,215.577 55.024,200.506C41.294,227.762 43.521,262.628 55.696,299.154C69.988,342.03 129.406,389 255.156,389C380.906,389 440.326,342.03 454.618,299.154L454.718,298.857L454.838,298.57C469.972,261.858 470.448,226.587 454.968,199.057L454.967,199.057Z" style="fill:rgb(235,178,125);fill-rule:nonzero;"/>
    <path d="M255.157,123C323.817,123 392.257,141.922 438.024,178.275C437.79,192.625 436.205,213.899 428.692,226.505C318.058,166.169 192.256,166.169 81.622,226.505C74.108,213.899 72.524,192.625 72.29,178.275C118.057,141.922 186.497,123 255.157,123Z" style="fill:rgb(165,120,75);"/>
</svg>
